X:1
T:Pearl Polka
M:2/4
L:1/8
K:G
DG G/2A/2B| EA A/2B/2c|Fe dc| B/c/A/B/ G2| DG G/2A/2B| EA A/2B/2c|Fe dF| AG G z:|
K:D ((3A/B/A/)F dA| ed/2c/2 d2|((3d/e/d/)Ae2|ef/e/ d2| ((3A/B/A/)F dA|
ed/2c/2 d2|((3d/e/d/)A fe| .d z d2:|
K:G
((3g/a/g/)d ((3d/e/d/)B| ((3B/c/B/)G G2|F/G/A/B/ ed| c/d/e/f/ ag| ((3g/a/g/)d ((3d/e/d/)B| ((3B/c/B/)G G2|F/G/A/B/ eF| A/G/F/A/G2:|
